www/assets/icons/light.svg

<svg xmlns="http://www.w3.org/2000/svg" width="24" height="24" viewBox="0 0 24 24" fill='currentColor'><path d="M13 6.06V3h-2v3.06c-4.5.5-8 4.31-8 8.93C3 16.1 3.9 17 5.01 17H8c0 2.21 1.79 4 4 4s4-1.79 4-4h2.99c1.11 0 2.01-.9 2.01-2.01 0-4.62-3.5-8.43-8-8.93M5 15c0-3.86 3.14-7 7-7s7 3.14 7 7z"/></svg>

<svg width="24" height="24" viewBox="0 0 24 24" xmlns="http://www.w3.org/2000/svg" fill='currentColor'><path d="M13 6.06V3H11V6.06C6.5 6.56 3 10.37 3 14.99C3 16.1 3.9 17 5.01 17H8C8 19.21 9.79 21 12 21C14.21 21 16 19.21 16 17H18.99C20.1 17 21 16.1 21 14.99C21 10.37 17.5 6.56 13 6.06ZM5 15C5 11.14 8.14 8 12 8C15.86 8 19 11.14 19 15H5Z"/></svg>
